assets/svg/padlock-black.svg

<svg height="28" viewBox="0 0 24 28" width="24" xmlns="http://www.w3.org/2000/svg"><path d="m1.4 28h21.2c.76875 0 1.4-.61875 1.4-1.38125v-13.24375c0-.7625-.625-1.375-1.4-1.375h-1.35v-1.93125c0-2.59375-1.0125-5.475-2.6625-7.2125-1.64375-1.7375-4-2.85625-6.58125-2.85625-.00625 0-.00625 0-.00625 0h-.00625c-2.58125 0-4.9375 1.11875-6.58125 2.85-1.65 1.7375-2.6625 4.61875-2.6625 7.2125v1.9375h-1.1875-.1625c-.775 0-1.4.61875-1.4 1.375v13.24375c0 .7625.625 1.38125 1.4 1.38125zm4.6625-17.93125c0-1.70625.61875-3.81875 1.75625-5.01875v-.01875c1.1-1.1625 2.61875-1.84375 4.175-1.84375h.00625.00625c1.55625 0 3.075.68125 4.175 1.84375v.0125l-.00625.00625c1.14375 1.2 1.75625 3.3125 1.75625 5.01875v1.93125h-1.09375-9.6875-1.0875z" fill="#111"/></svg>

<?xml version="1.0" encoding="UTF-8"?>
<svg width="24px" height="28px" viewBox="0 0 24 28" version="1.1" xmlns="http://www.w3.org/2000/svg" xmlns:xlink="http://www.w3.org/1999/xlink">
    <!-- Generator: Sketch 48.2 (47327) - http://www.bohemiancoding.com/sketch -->
    <title>Shape</title>
    <desc>Created with Sketch.</desc>
    <defs></defs>
    <g id="Mobile-Menu" stroke="none" stroke-width="1" fill="none" fill-rule="evenodd">
        <path d="M1.4,28 L22.6,28 C23.36875,28 24,27.38125 24,26.61875 L24,13.375 C24,12.6125 23.375,12 22.6,12 L21.25,12 L21.25,10.06875 C21.25,7.475 20.2375,4.59375 18.5875,2.85625 C16.94375,1.11875 14.5875,0 12.00625,0 C12,0 12,0 12,0 C12,0 11.99375,0 11.99375,0 C9.4125,0 7.05625,1.11875 5.4125,2.85 C3.7625,4.5875 2.75,7.46875 2.75,10.0625 L2.75,12 L1.5625,12 L1.4,12 C0.625,12 0,12.61875 0,13.375 L0,26.61875 C0,27.38125 0.625,28 1.4,28 Z M6.0625,10.06875 C6.0625,8.3625 6.68125,6.25 7.81875,5.05 L7.81875,5.03125 C8.91875,3.86875 10.4375,3.1875 11.99375,3.1875 L12,3.1875 L12.00625,3.1875 C13.5625,3.1875 15.08125,3.86875 16.18125,5.03125 L16.18125,5.04375 L16.175,5.05 C17.31875,6.25 17.93125,8.3625 17.93125,10.06875 L17.93125,12 L16.8375,12 L7.15,12 L6.0625,12 L6.0625,10.06875 Z" id="Shape" fill="#111111" fill-rule="nonzero"></path>
    </g>
</svg>
